static/images/navpaper-logo.svg

<svg height="1024" viewBox="0 0 1024 1024" width="1024" xmlns="http://www.w3.org/2000/svg" xmlns:xlink="http://www.w3.org/1999/xlink"><linearGradient id="a" x1="85.0995%" x2="15.512071%" y1="17.743928%" y2="81.97411%"><stop offset="0" stop-color="#0a87f5"/><stop offset="1" stop-color="#dc1eb9"/></linearGradient><g fill="none" fill-rule="evenodd"><path d="m0 0h1024v1024h-1024z"/><path d="m803.666595 744.856249c8.84169 0 16.009295 7.167605 16.009295 16.009295v42.801051c0 8.84169-7.167605 16.009295-16.009295 16.009295h-43.892149c-8.84169 0-16.009295-7.167605-16.009295-16.009295v-42.801051c0-8.84169 7.167605-16.009295 16.009295-16.009295zm-586.006892-223.390072c44.208447 0 80.046474 35.838027 80.046474 80.046474v136.847504c0 44.208446-35.838027 80.046473-80.046474 80.046473h-137.6132294c-44.2084466 0-80.0464736-35.838027-80.0464736-80.046473v-136.847504c0-44.208447 35.838027-80.046474 80.0464736-80.046474zm214.65796-372.96255c8.841689 0 16.009295 7.167605 16.009295 16.009295v190.10222c0 8.841689 7.167605 16.009295 16.009294 16.009295h41.490756c8.841689 0 16.009295 7.167605 16.009295 16.009294v42.801052c0 8.841689 7.167605 16.009295 16.009294 16.009295h40.290059c8.841689 0 16.009295-7.167606 16.009295-16.009295v-42.801052c0-8.841689 7.167605-16.009294 16.009294-16.009294h43.89215c8.841689 0 16.009295 7.167605 16.009295 16.009294v42.801052c0 8.841689-7.167606 16.009295-16.009295 16.009295h-40.156648c-8.841689 0-16.009294 7.167605-16.009294 16.009295v42.801051c0 8.84169-7.167606 16.009295-16.009295 16.009295h-43.89215c-8.841689 0-16.009294 7.167605-16.009294 16.009295v115.282579c0 8.841689-7.167606 16.009294-16.009295 16.009294h-41.557461c-8.841689 0-16.009295 7.167606-16.009295 16.009295v116.485038c0 8.841689-7.167605 16.009295-16.009295 16.009295h-43.892149c-8.84169 0-16.009295-7.167606-16.009295-16.009295v-188.899762c0-8.841689 7.167605-16.009295 16.009295-16.009295h41.490755c8.84169 0 16.009295-7.167605 16.009295-16.009294v-42.801052c0-8.841689-7.167605-16.009295-16.009295-16.009295h-39.089361c-8.841689 0-16.009295-7.167605-16.009295-16.009295v-42.801051c0-8.84169 7.167606-16.009295 16.009295-16.009295h39.089361c8.84169 0 16.009295-7.167605 16.009295-16.009295v-42.801051c0-8.84169-7.167605-16.009295-16.009295-16.009295h-40.290058c-8.84169 0-16.009295 7.167605-16.009295 16.009295v42.801051c0 8.84169-7.167605 16.009295-16.009295 16.009295h-43.958855c-8.841689 0-16.009294-7.167605-16.009294-16.009295v-42.801051c0-8.84169 7.167605-16.009295 16.009294-16.009295h42.691453c8.841689 0 16.009295-7.167605 16.009295-16.009295v-190.169023c0-8.84169 7.167605-16.009295 16.009294-16.009295zm297.839587 300.547826c8.84169 0 16.009295 7.167606 16.009295 16.009295v40.396135c0 8.841689 7.167605 16.009294 16.009295 16.009294h40.290058c8.84169 0 16.009295 7.167606 16.009295 16.009295v42.801052c0 8.841689-7.167605 16.009295-16.009295 16.009295h-40.290058c-8.84169 0-16.009295 7.167605-16.009295 16.009294v42.801052c0 8.841689-7.167605 16.009295-16.009295 16.009295h-116.267503c-8.841689 0-16.009294 7.167605-16.009294 16.009295v41.598593c0 8.841689 7.167605 16.009294 16.009294 16.009294h43.89215c8.841689 0 16.009295 7.167606 16.009295 16.009295v39.26048c0 8.841689-7.167606 16.009294-16.009295 16.009294h-119.802889c-8.841689 0-16.009294-7.167605-16.009294-16.009294v-113.746105c0-8.841689 7.167605-16.009294 16.009294-16.009294h41.490756c8.841689 0 16.009294-7.167606 16.009294-16.009295v-41.865806c0-8.84169 7.167606-16.009295 16.009295-16.009295h42.758158c8.84169 0 16.009295-7.167606 16.009295-16.009295v-115.282579c0-8.841689 7.167605-16.009295 16.009295-16.009295zm-504.759721 144.562236h-153.0888811v152.712231h153.0888811zm577.001664-222.989252c8.841689 0 16.009295 7.167605 16.009295 16.009294v42.801052c0 8.841689-7.167606 16.009295-16.009295 16.009295h-43.89215c-8.841689 0-16.009295-7.167606-16.009295-16.009295v-42.801052c0-8.841689 7.167606-16.009294 16.009295-16.009294zm-593.010959 0c8.841689 0 16.009295 7.167605 16.009295 16.009294v42.801052c0 8.841689-7.167606 16.009295-16.009295 16.009295h-43.89215c-8.841689 0-16.009294-7.167606-16.009294-16.009295v-42.801052c0-8.841689 7.167605-16.009294 16.009294-16.009294zm-148.2860925 0c8.8416894 0 16.0092948 7.167605 16.0092948 16.009294v42.801052c0 8.841689-7.1676054 16.009295-16.0092948 16.009295h-43.8921497c-8.8416893 0-16.0092947-7.167606-16.0092947-16.009295v-42.801052c0-8.841689 7.1676054-16.009294 16.0092947-16.009294zm157.7582585-370.624437c44.208447 0 80.046474 35.838027 80.046474 80.0464736v136.8475034c0 44.208447-35.838027 80.046474-80.046474 80.046474h-137.6132293c-44.2084466 0-80.0464736-35.838027-80.0464736-80.046474v-136.8475034c0-44.2084466 35.838027-80.0464736 80.0464736-80.0464736zm519.501614 0c44.208447 0 80.046474 35.838027 80.046474 80.0464736v136.8475034c0 44.208447-35.838027 80.046474-80.046474 80.046474h-137.613229c-44.208447 0-80.046474-35.838027-80.046474-80.046474v-136.8475034c0-44.2084466 35.838027-80.0464736 80.046474-80.0464736zm-511.763788 72.1475111h-153.088881v152.7122319h153.088881zm519.568319 0h-153.088881v152.7122319h153.088881zm-313.782177-72.1475111c8.84169 0 16.009295 7.16760539 16.009295 16.0092947v42.8010517c0 8.8416894-7.167605 16.0092947-16.009295 16.0092947h-43.892149c-8.84169 0-16.009295-7.1676053-16.009295-16.0092947v-42.8010517c0-8.84168931 7.167605-16.0092947 16.009295-16.0092947z" fill="url(#a)" fill-rule="nonzero" transform="translate(102 102)"/></g></svg>

<?xml version="1.0" encoding="UTF-8"?>
<svg width="1024px" height="1024px" viewBox="0 0 1024 1024" version="1.1" xmlns="http://www.w3.org/2000/svg" xmlns:xlink="http://www.w3.org/1999/xlink">
    <!-- Generator: Sketch 63.1 (92452) - https://sketch.com -->
    <title>Artboard</title>
    <desc>Created with Sketch.</desc>
    <defs>
        <linearGradient x1="85.0995%" y1="17.7439283%" x2="15.5120713%" y2="81.9741102%" id="linearGradient-1">
            <stop stop-color="#0A87F5" offset="0%"></stop>
            <stop stop-color="#DC1EB9" offset="100%"></stop>
        </linearGradient>
    </defs>
    <g id="Artboard" stroke="none" stroke-width="1" fill="none" fill-rule="evenodd">
        <rect id="Rectangle" x="0" y="0" width="1024" height="1024"></rect>
        <g id="qr-code" transform="translate(102.000000, 102.000000)" fill="url(#linearGradient-1)" fill-rule="nonzero">
            <path d="M803.666595,744.856249 C812.508285,744.856249 819.67589,752.023854 819.67589,760.865544 L819.67589,803.666595 C819.67589,812.508285 812.508285,819.67589 803.666595,819.67589 L759.774446,819.67589 C750.932756,819.67589 743.765151,812.508285 743.765151,803.666595 L743.765151,760.865544 C743.765151,752.023854 750.932756,744.856249 759.774446,744.856249 L803.666595,744.856249 Z M217.659703,521.466177 C261.86815,521.466177 297.706177,557.304204 297.706177,601.512651 L297.706177,738.360155 C297.706177,782.568601 261.86815,818.406628 217.659703,818.406628 L80.0464736,818.406628 C35.838027,818.406628 1.9624828e-14,782.568601 0,738.360155 L0,601.512651 C8.79688144e-15,557.304204 35.838027,521.466177 80.0464736,521.466177 L217.659703,521.466177 Z M432.317663,148.503627 C441.159352,148.503627 448.326958,155.671232 448.326958,164.512922 L448.326958,354.615142 C448.326958,363.456831 455.494563,370.624437 464.336252,370.624437 L505.827008,370.624437 C514.668697,370.624437 521.836303,377.792042 521.836303,386.633731 L521.836303,429.434783 C521.836303,438.276472 529.003908,445.444078 537.845597,445.444078 L578.135656,445.444078 C586.977345,445.444078 594.144951,438.276472 594.144951,429.434783 L594.144951,386.633731 C594.144951,377.792042 601.312556,370.624437 610.154245,370.624437 L654.046395,370.624437 C662.888084,370.624437 670.05569,377.792042 670.05569,386.633731 L670.05569,429.434783 C670.05569,438.276472 662.888084,445.444078 654.046395,445.444078 L613.889747,445.444078 C605.048058,445.444078 597.880453,452.611683 597.880453,461.453373 L597.880453,504.254424 C597.880453,513.096114 590.712847,520.263719 581.871158,520.263719 L537.979008,520.263719 C529.137319,520.263719 521.969714,527.431324 521.969714,536.273014 L521.969714,651.555593 C521.969714,660.397282 514.802108,667.564887 505.960419,667.564887 L464.402958,667.564887 C455.561269,667.564887 448.393663,674.732493 448.393663,683.574182 L448.393663,800.05922 C448.393663,808.900909 441.226058,816.068515 432.384368,816.068515 L388.492219,816.068515 C379.650529,816.068515 372.482924,808.900909 372.482924,800.05922 L372.482924,611.159458 C372.482924,602.317769 379.650529,595.150163 388.492219,595.150163 L429.982974,595.150163 C438.824664,595.150163 445.992269,587.982558 445.992269,579.140869 L445.992269,536.339817 C445.992269,527.498128 438.824664,520.330522 429.982974,520.330522 L390.893613,520.330522 C382.051924,520.330522 374.884318,513.162917 374.884318,504.321227 L374.884318,461.520176 C374.884318,452.678486 382.051924,445.510881 390.893613,445.510881 L429.982974,445.510881 C438.824664,445.510881 445.992269,438.343276 445.992269,429.501586 L445.992269,386.700535 C445.992269,377.858845 438.824664,370.69124 429.982974,370.69124 L389.692916,370.69124 C380.851226,370.69124 373.683621,377.858845 373.683621,386.700535 L373.683621,429.501586 C373.683621,438.343276 366.516016,445.510881 357.674326,445.510881 L313.715471,445.510881 C304.873782,445.510881 297.706177,438.343276 297.706177,429.501586 L297.706177,386.700535 C297.706177,377.858845 304.873782,370.69124 313.715471,370.69124 L356.406924,370.69124 C365.248613,370.69124 372.416219,363.523635 372.416219,354.681945 L372.416219,164.512922 C372.416219,155.671232 379.583824,148.503627 388.425513,148.503627 L432.317663,148.503627 Z M730.15725,449.051453 C738.99894,449.051453 746.166545,456.219059 746.166545,465.060748 L746.166545,505.456883 C746.166545,514.298572 753.33415,521.466177 762.17584,521.466177 L802.465898,521.466177 C811.307588,521.466177 818.475193,528.633783 818.475193,537.475472 L818.475193,580.276524 C818.475193,589.118213 811.307588,596.285819 802.465898,596.285819 L762.17584,596.285819 C753.33415,596.285819 746.166545,603.453424 746.166545,612.295113 L746.166545,655.096165 C746.166545,663.937854 738.99894,671.10546 730.15725,671.10546 L613.889747,671.10546 C605.048058,671.10546 597.880453,678.273065 597.880453,687.114755 L597.880453,728.713348 C597.880453,737.555037 605.048058,744.722642 613.889747,744.722642 L657.781897,744.722642 C666.623586,744.722642 673.791192,751.890248 673.791192,760.731937 L673.791192,799.992417 C673.791192,808.834106 666.623586,816.001711 657.781897,816.001711 L537.979008,816.001711 C529.137319,816.001711 521.969714,808.834106 521.969714,799.992417 L521.969714,686.246312 C521.969714,677.404623 529.137319,670.237018 537.979008,670.237018 L579.469764,670.237018 C588.311453,670.237018 595.479058,663.069412 595.479058,654.227723 L595.479058,612.361917 C595.479058,603.520227 602.646664,596.352622 611.488353,596.352622 L654.246511,596.352622 C663.088201,596.352622 670.255806,589.185016 670.255806,580.343327 L670.255806,465.060748 C670.255806,456.219059 677.423411,449.051453 686.265101,449.051453 L730.15725,449.051453 Z M225.397529,593.613689 L72.3086479,593.613689 L72.3086479,746.32592 L225.397529,746.32592 L225.397529,593.613689 Z M802.399193,370.624437 C811.240882,370.624437 818.408488,377.792042 818.408488,386.633731 L818.408488,429.434783 C818.408488,438.276472 811.240882,445.444078 802.399193,445.444078 L758.507043,445.444078 C749.665354,445.444078 742.497748,438.276472 742.497748,429.434783 L742.497748,386.633731 C742.497748,377.792042 749.665354,370.624437 758.507043,370.624437 L802.399193,370.624437 Z M209.388234,370.624437 C218.229923,370.624437 225.397529,377.792042 225.397529,386.633731 L225.397529,429.434783 C225.397529,438.276472 218.229923,445.444078 209.388234,445.444078 L165.496084,445.444078 C156.654395,445.444078 149.48679,438.276472 149.48679,429.434783 L149.48679,386.633731 C149.48679,377.792042 156.654395,370.624437 165.496084,370.624437 L209.388234,370.624437 Z M61.1021415,370.624437 C69.9438309,370.624437 77.1114363,377.792042 77.1114363,386.633731 L77.1114363,429.434783 C77.1114363,438.276472 69.9438309,445.444078 61.1021415,445.444078 L17.2099918,445.444078 C8.3683025,445.444078 1.2006971,438.276472 1.2006971,429.434783 L1.2006971,386.633731 C1.2006971,377.792042 8.3683025,370.624437 17.2099918,370.624437 L61.1021415,370.624437 Z M218.8604,0 C263.068847,-8.12095991e-15 298.906874,35.838027 298.906874,80.0464736 L298.906874,216.893977 C298.906874,261.102424 263.068847,296.940451 218.8604,296.940451 L81.2471707,296.940451 C37.0387241,296.940451 1.2006971,261.102424 1.2006971,216.893977 L1.2006971,80.0464736 C1.2006971,35.838027 37.0387241,8.12095991e-15 81.2471707,0 L218.8604,0 Z M738.362014,0 C782.570461,-2.23318146e-14 818.408488,35.838027 818.408488,80.0464736 L818.408488,216.893977 C818.408488,261.102424 782.570461,296.940451 738.362014,296.940451 L600.748785,296.940451 C556.540338,296.940451 520.702311,261.102424 520.702311,216.893977 L520.702311,80.0464736 C520.702311,35.838027 556.540338,-6.08989481e-15 600.748785,0 L738.362014,0 Z M226.598226,72.1475111 L73.509345,72.1475111 L73.509345,224.859743 L226.598226,224.859743 L226.598226,72.1475111 Z M746.166545,72.1475111 L593.077664,72.1475111 L593.077664,224.859743 L746.166545,224.859743 L746.166545,72.1475111 Z M432.384368,0 C441.226058,-1.62419198e-15 448.393663,7.16760539 448.393663,16.0092947 L448.393663,58.8103464 C448.393663,67.6520358 441.226058,74.8196411 432.384368,74.8196411 L388.492219,74.8196411 C379.650529,74.8196411 372.482924,67.6520358 372.482924,58.8103464 L372.482924,16.0092947 C372.482924,7.16760539 379.650529,8.72961934e-15 388.492219,0 L432.384368,0 Z" id="Combined-Shape"></path>
        </g>
    </g>
</svg>
